build/svg/cmd/sc_toggleformula.svg

<?xml version="1.0" encoding="UTF-8" standalone="no"?>
<svg
   xmlns:dc="http://purl.org/dc/elements/1.1/"
   xmlns:cc="http://creativecommons.org/ns#"
   xmlns:rdf="http://www.w3.org/1999/02/22-rdf-syntax-ns#"
   xmlns:svg="http://www.w3.org/2000/svg"
   xmlns="http://www.w3.org/2000/svg"
   xmlns:sodipodi="http://sodipodi.sourceforge.net/DTD/sodipodi-0.dtd"
   xmlns:inkscape="http://www.inkscape.org/namespaces/inkscape"
   viewBox="0 0 16 16"
   version="1.1"
   id="svg4"
   sodipodi:docname="sc_toggleformula.svg"
   inkscape:export-filename="/home/jupiter007/Libreoffice yaru theme fullcolor/build/cmd/sc_toggleformula.png"
   inkscape:export-xdpi="95"
   inkscape:export-ydpi="95"
   inkscape:version="0.92.5 (2060ec1f9f, 2020-04-08)"><metadata
   id="metadata10">
  <rdf:RDF>
    <cc:Work
       rdf:about="">
      <dc:format>image/svg+xml</dc:format>
      <dc:type
         rdf:resource="http://purl.org/dc/dcmitype/StillImage" />
    </cc:Work>
  </rdf:RDF>
</metadata>
<defs
   id="defs8" />
<sodipodi:namedview
   pagecolor="#ffffff"
   bordercolor="#666666"
   borderopacity="1"
   objecttolerance="10"
   gridtolerance="10"
   guidetolerance="10"
   inkscape:pageopacity="0"
   inkscape:pageshadow="2"
   inkscape:window-width="1920"
   inkscape:window-height="1011"
   id="namedview6"
   showgrid="true"
   inkscape:zoom="41.7193"
   inkscape:cx="3.0970114"
   inkscape:cy="6.8399406"
   inkscape:window-x="0"
   inkscape:window-y="32"
   inkscape:window-maximized="1"
   inkscape:current-layer="svg4">
  <inkscape:grid
     type="xygrid"
     id="grid815" />
</sodipodi:namedview>



/&amp;gt;<path
   sodipodi:nodetypes="csccccccccccscccc"
   inkscape:connector-curvature="0"
   id="path839"
   d="m 7,2.0000001 c -3,0 -4,0.9999995 -4,3.9999995 v 1 H 2 v 2 H 3 V 14 H 5 V 8.9999996 h 1 v -2 H 5 v -1 c 0,-1.498676 0.503906,-2 2,-2 H 8 V 2.0000001 Z"
   style="opacity:0.6;fill:#000000;fill-opacity:1;stroke:#000000;stroke-width:2;stroke-linecap:round;stroke-linejoin:round;stroke-miterlimit:4;stroke-dasharray:none;stroke-opacity:1" />
<path
   style="opacity:1;fill:#ffffff;fill-opacity:1;stroke:none;stroke-width:2;stroke-linecap:round;stroke-linejoin:round;stroke-miterlimit:4;stroke-dasharray:none;stroke-opacity:1"
   d="m 7,2.0000001 c -3,0 -4,0.9999995 -4,3.9999995 v 1 H 2 v 2 H 3 V 14 H 5 V 8.9999996 h 1 v -2 H 5 v -1 c 0,-1.498676 0.503906,-2 2,-2 H 8 V 2.0000001 Z"
   id="rect826"
   inkscape:connector-curvature="0"
   sodipodi:nodetypes="csccccccccccscccc" />
<path
   style="opacity:0.6;fill:#000000;stroke:#000000;stroke-width:2;stroke-linejoin:round;stroke-miterlimit:4;stroke-dasharray:none"
   id="path817"
   d="m 9.4649899,9.7578537 -0.7070313,0.7070313 1.4140624,1.414062 -1.4140624,1.414063 0.7070313,0.707031 1.4140621,-1.414062 1.414063,1.414062 0.707031,-0.707031 -1.414062,-1.414063 1.414062,-1.414062 -0.707031,-0.7070313 -1.414063,1.4140623 z"
   inkscape:connector-curvature="0"
   sodipodi:nodetypes="ccccccccccccc" />
<path
   d="m 9.4649899,9.7578537 -0.7070313,0.7070313 1.4140624,1.414062 -1.4140624,1.414063 0.7070313,0.707031 1.4140621,-1.414062 1.414063,1.414062 0.707031,-0.707031 -1.414062,-1.414063 1.414062,-1.414062 -0.707031,-0.7070313 -1.414063,1.4140623 z"
   id="path2"
   style="fill:#ffffff"
   inkscape:connector-curvature="0"
   sodipodi:nodetypes="ccccccccccccc" />
</svg>

<svg xmlns="http://www.w3.org/2000/svg" viewBox="0 0 16 16">/&amp;gt;<path d="M7 2C4 2 3 3 3 6v1H2v2h1v5h2V9h1V7H5V6c0-1.499.504-2 2-2h1V2z" opacity=".6" stroke="#000" stroke-width="2" stroke-linecap="round" stroke-linejoin="round"/><path d="M7 2C4 2 3 3 3 6v1H2v2h1v5h2V9h1V7H5V6c0-1.499.504-2 2-2h1V2z" fill="#fff"/><path d="M9.465 9.758l-.707.707 1.414 1.414-1.414 1.414.707.707 1.414-1.414L12.293 14l.707-.707-1.414-1.414L13 10.465l-.707-.707-1.414 1.414z" opacity=".6" stroke="#000" stroke-width="2" stroke-linejoin="round"/><path d="M9.465 9.758l-.707.707 1.414 1.414-1.414 1.414.707.707 1.414-1.414L12.293 14l.707-.707-1.414-1.414L13 10.465l-.707-.707-1.414 1.414z" fill="#fff"/></svg>
